src/lib/images/exchanges/coinex.svg

<svg viewBox="0 0 1202 335" fill="none" xmlns="http://www.w3.org/2000/svg">
<path d="M214.8 123.4C189 98.2 148.1 98.2 122.5 123.4C97 149.1 97.4 190.8 122.8 216.4C148.2 242 189.7 242.3 215.3 216.7C215.7 216.3 217.5 214.3 220.7 210.8L190 179.8C186.9 183.6 185.1 185.5 185 185.5C176.4 194.1 162.3 194.1 153.6 185.5C145 176.9 145 162.6 153.3 154.1C161.7 145.7 175.8 145.7 184.5 154.4C184.5 154.4 212 181.9 266.8 237C244.2 269.8 206.4 290.4 165.7 290.4C98.3 290.4 43.5 235.2 43.5 167C43.5 98.8 98.4 43.7 165.7 43.7C205 43.7 241.1 62.7 263.6 93.6C260 97.8 250.8 108.4 235.8 125.4L266.2 155.8L316.5 98.8C290.4 39.3 231.6 0 165.6 0C74.2 0 0 74.9 0 167.1C0 259.3 74.1 334.3 165.5 334.3C207.1 334.3 241.5 321.2 275.1 292.3C305.6 266.2 320.1 230 320.1 230L214.8 123.4Z" fill="url(#paint0_linear_47_556)"/>
<path d="M894.049 189.683V269.783H861.449V188.083C858.149 169.283 841.649 154.983 821.749 154.983C801.549 154.983 784.749 169.583 781.849 188.983V269.883H749.249V124.383L774.349 140.283C787.149 129.283 803.749 122.683 821.749 122.683C860.049 122.883 891.549 152.383 894.049 189.683ZM551.549 105.983C540.649 111.683 531.049 119.183 522.949 128.283C510.949 111.583 491.249 100.683 469.149 100.683C432.449 100.683 402.749 130.383 402.749 167.183C402.749 203.983 432.449 233.683 469.149 233.683C481.049 233.683 492.349 230.583 501.949 225.083C505.549 236.983 511.249 247.683 518.649 257.283C504.049 265.383 487.149 270.083 469.149 270.083C412.549 270.083 366.549 224.083 366.549 167.483C366.549 110.883 412.549 64.6835 469.249 64.6835C502.849 64.3835 532.849 80.8835 551.549 105.983ZM600.049 269.883C560.049 269.883 527.549 237.483 527.549 197.383C527.549 157.283 559.949 124.883 600.049 124.883C640.149 124.883 672.549 157.283 672.549 197.383C672.549 237.483 640.249 269.883 600.049 269.883ZM600.049 237.483C622.349 237.483 640.249 219.383 640.249 197.283C640.249 175.183 622.149 157.083 600.049 157.083C578.049 157.083 559.849 175.183 559.849 197.283C559.849 219.383 577.949 237.483 600.049 237.483ZM692.849 124.783H725.049V269.683H692.849V124.783ZM1043.15 99.1835H950.949V151.783H1040.45V184.483H950.949V237.083H1043.15V269.883H916.349V66.4835H1043.15V99.1835ZM1110.75 197.083L1061.15 124.983H1102.15C1103.45 127.083 1105.25 129.883 1107.45 133.383C1110.25 137.383 1113.05 141.783 1115.85 146.183C1118.75 150.683 1121.55 154.983 1124.25 158.983C1126.85 162.983 1128.85 166.083 1129.95 168.183L1131.65 171.083L1161.25 124.883H1200.25L1151.45 195.883L1201.95 269.783H1161.55L1130.45 222.483L1128.75 224.983C1127.35 227.083 1125.45 230.183 1122.65 234.283C1119.85 238.483 1116.95 242.883 1113.85 247.783C1110.75 252.483 1107.85 256.983 1105.05 261.283C1102.85 264.883 1101.05 267.683 1099.75 269.683H1061.15L1110.75 197.083Z" fill="white"/>
<path fill-rule="evenodd" clip-rule="evenodd" d="M686.648 86.2833C686.648 80.3833 688.848 75.2833 693.248 70.7833C697.648 66.2833 702.748 64.1833 708.748 64.1833C714.848 64.1833 720.148 66.3833 724.548 70.7833C728.848 74.9833 731.148 80.0833 731.148 86.2833C731.148 92.4833 728.948 97.6833 724.548 102.083C720.348 106.383 715.248 108.683 709.048 108.683C702.848 108.683 697.648 106.483 693.248 102.083C688.948 97.7833 686.648 92.5833 686.648 86.2833Z" fill="url(#paint1_linear_47_556)"/>
<defs>
<linearGradient id="paint0_linear_47_556" x1="320.272" y1="167.148" x2="0.0632127" y2="167.148" gradientUnits="userSpaceOnUse">
<stop stop-color="#22E6B8"/>
<stop offset="1" stop-color="#00C1CE"/>
</linearGradient>
<linearGradient id="paint1_linear_47_556" x1="731.034" y1="86.4436" x2="686.684" y2="86.4436" gradientUnits="userSpaceOnUse">
<stop stop-color="#22E6B8"/>
<stop offset="1" stop-color="#00C1CE"/>
</linearGradient>
</defs>
</svg>

<svg fill="none" viewBox="0 0 1202 335" xmlns="http://www.w3.org/2000/svg" xmlns:xlink="http://www.w3.org/1999/xlink"><linearGradient id="a"><stop offset="0" stop-color="#22e6b8"/><stop offset="1" stop-color="#00c1ce"/></linearGradient><linearGradient id="b" gradientUnits="userSpaceOnUse" x1="320.272" x2=".063213" xlink:href="#a" y1="167.148" y2="167.148"/><linearGradient id="c" gradientUnits="userSpaceOnUse" x1="731.034" x2="686.684" xlink:href="#a" y1="86.4436" y2="86.4436"/><path d="m214.8 123.4c-25.8-25.2-66.7-25.2-92.3 0-25.5 25.7-25.1 67.4.3 93s66.9 25.9 92.5.3c.4-.4 2.2-2.4 5.4-5.9l-30.7-31c-3.1 3.8-4.9 5.7-5 5.7-8.6 8.6-22.7 8.6-31.4 0-8.6-8.6-8.6-22.9-.3-31.4 8.4-8.4 22.5-8.4 31.2.3 0 0 27.5 27.5 82.3 82.6-22.6 32.8-60.4 53.4-101.1 53.4-67.4 0-122.2-55.2-122.2-123.4s54.9-123.3 122.2-123.3c39.3 0 75.4 19 97.9 49.9-3.6 4.2-12.8 14.8-27.8 31.8l30.4 30.4 50.3-57c-26.1-59.5-84.9-98.8-150.9-98.8-91.4 0-165.6 74.9-165.6 167.1s74.1 167.2 165.5 167.2c41.6 0 76-13.1 109.6-42 30.5-26.1 45-62.3 45-62.3z" fill="url(#b)"/><path d="m894.049 189.683v80.1h-32.6v-81.7c-3.3-18.8-19.8-33.1-39.7-33.1-20.2 0-37 14.6-39.9 34v80.9h-32.6v-145.5l25.1 15.9c12.8-11 29.4-17.6 47.4-17.6 38.3.2 69.8 29.7 72.3 67zm-342.5-83.7c-10.9 5.7-20.5 13.2-28.6 22.3-12-16.7-31.7-27.6-53.8-27.6-36.7 0-66.4 29.7-66.4 66.5s29.7 66.5 66.4 66.5c11.9 0 23.2-3.1 32.8-8.6 3.6 11.9 9.3 22.6 16.7 32.2-14.6 8.1-31.5 12.8-49.5 12.8-56.6 0-102.6-46-102.6-102.6s46-102.7995 102.7-102.7995c33.6-.3 63.6 16.2 82.3 41.2995zm48.5 163.9c-40 0-72.5-32.4-72.5-72.5s32.4-72.5 72.5-72.5 72.5 32.4 72.5 72.5-32.3 72.5-72.5 72.5zm0-32.4c22.3 0 40.2-18.1 40.2-40.2s-18.1-40.2-40.2-40.2c-22 0-40.2 18.1-40.2 40.2s18.1 40.2 40.2 40.2zm92.8-112.7h32.2v144.9h-32.2zm350.301-25.5995h-92.201v52.5995h89.501v32.7h-89.501v52.6h92.201v32.8h-126.801v-203.3995h126.801zm67.6 97.8995-49.6-72.1h41c1.3 2.1 3.1 4.9 5.3 8.4 2.8 4 5.6 8.4 8.4 12.8 2.9 4.5 5.7 8.8 8.4 12.8 2.6 4 4.6 7.1 5.7 9.2l1.7 2.9 29.6-46.2h39l-48.8 71 50.5 73.9h-40.4l-31.1-47.3-1.7 2.5c-1.4 2.1-3.3 5.2-6.1 9.3-2.8 4.2-5.7 8.6-8.8 13.5-3.1 4.7-6 9.2-8.8 13.5-2.2 3.6-4 6.4-5.3 8.4h-38.6z" fill="#fff"/><path clip-rule="evenodd" d="m686.648 86.2833c0-5.9 2.2-11 6.6-15.5s9.5-6.6 15.5-6.6c6.1 0 11.4 2.2 15.8 6.6 4.3 4.2 6.6 9.3 6.6 15.5s-2.2 11.4-6.6 15.7997c-4.2 4.3-9.3 6.6-15.5 6.6s-11.4-2.2-15.8-6.6c-4.3-4.2997-6.6-9.4997-6.6-15.7997z" fill="url(#c)" fill-rule="evenodd"/></svg>
